src/lib/packages/icons/src/assets/line/toggle-off-rectangle.svg

<svg xmlns="http://www.w3.org/2000/svg" width="24" height="24" fill="none"><path fill="currentColor" d="M19 18.75H5c-2.418 0-3.75-1.332-3.75-3.75V9c0-2.418 1.332-3.75 3.75-3.75h14c2.418 0 3.75 1.332 3.75 3.75v6c0 2.418-1.332 3.75-3.75 3.75Zm-14-12c-1.577 0-2.25.673-2.25 2.25v6c0 1.577.673 2.25 2.25 2.25h14c1.577 0 2.25-.673 2.25-2.25V9c0-1.577-.673-2.25-2.25-2.25H5Zm4.5 9h-3c-1.409 0-2.25-.841-2.25-2.25v-3c0-1.409.841-2.25 2.25-2.25h3c1.409 0 2.25.841 2.25 2.25v3c0 1.409-.841 2.25-2.25 2.25Zm-3-6c-.589 0-.75.161-.75.75v3c0 .589.161.75.75.75h3c.589 0 .75-.161.75-.75v-3c0-.589-.161-.75-.75-.75h-3Z"/></svg>

<svg width="24" height="24" viewBox="0 0 24 24" fill="none" xmlns="http://www.w3.org/2000/svg">
<path d="M19 18.75H5C2.582 18.75 1.25 17.418 1.25 15V9C1.25 6.582 2.582 5.25 5 5.25H19C21.418 5.25 22.75 6.582 22.75 9V15C22.75 17.418 21.418 18.75 19 18.75ZM5 6.75C3.423 6.75 2.75 7.423 2.75 9V15C2.75 16.577 3.423 17.25 5 17.25H19C20.577 17.25 21.25 16.577 21.25 15V9C21.25 7.423 20.577 6.75 19 6.75H5ZM9.5 15.75H6.5C5.091 15.75 4.25 14.909 4.25 13.5V10.5C4.25 9.091 5.091 8.25 6.5 8.25H9.5C10.909 8.25 11.75 9.091 11.75 10.5V13.5C11.75 14.909 10.909 15.75 9.5 15.75ZM6.5 9.75C5.911 9.75 5.75 9.911 5.75 10.5V13.5C5.75 14.089 5.911 14.25 6.5 14.25H9.5C10.089 14.25 10.25 14.089 10.25 13.5V10.5C10.25 9.911 10.089 9.75 9.5 9.75H6.5Z" fill="currentColor"/>
</svg>
